chrome/icons/dictionary.svg

<svg height="16" viewBox="128 0 768 1024" width="16" xmlns="http://www.w3.org/2000/svg" xmlns:xlink="http://www.w3.org/1999/xlink">
  <path d="M192,896C192,905 193.667,913.417 197,921.25C200.333,929.083 204.833,935.833 210.5,941.5C216.167,947.167 222.917,951.667 230.75,955C238.583,958.333 247,960 256,960L864,960C872.667,960 880.167,963.167 886.5,969.5C892.833,975.833 896,983.333 896,992C896,1000.67 892.833,1008.17 886.5,1014.5C880.167,1020.83 872.667,1024 864,1024L253.5,1024C236.833,1024 220.917,1020.58 205.75,1013.75C190.583,1006.92 177.25,997.75 165.75,986.25C154.25,974.75 145.083,961.417 138.25,946.25C131.417,931.083 128,915.167 128,898.5L128,125.5C128,108.833 131.417,92.9167 138.25,77.75C145.083,62.5834 154.25,49.2501 165.75,37.75C177.25,26.2501 190.583,17.0834 205.75,10.25C220.917,3.41669 236.833,0 253.5,0L770.5,0C787.167,0 803.083,3.41669 818.25,10.25C833.417,17.0834 846.75,26.2501 858.25,37.75C869.75,49.2501 878.917,62.5834 885.75,77.75C892.583,92.9167 896,108.833 896,125.5L896,832C896,841 894.333,849.333 891,857C887.667,864.667 883.083,871.417 877.25,877.25C871.417,883.083 864.667,887.667 857,891C849.333,894.333 841,896 832,896ZM192,832L832,832L832,128C832,119.333 830.333,111.083 827,103.25C823.667,95.4167 819.083,88.5834 813.25,82.75C807.417,76.9167 800.583,72.3334 792.75,69C784.917,65.6667 776.667,64.0001 768,64L256,64C247,64.0001 238.667,65.6667 231,69C223.333,72.3334 216.583,76.9167 210.75,82.75C204.917,88.5834 200.333,95.3334 197,103C193.667,110.667 192,119 192,128ZM704,128C712.667,128 720.917,129.667 728.75,133C736.583,136.333 743.417,140.917 749.25,146.75C755.083,152.583 759.667,159.417 763,167.25C766.333,175.083 768,183.333 768,192L768,256C768,265 766.333,273.333 763,281C759.667,288.667 755.083,295.417 749.25,301.25C743.417,307.083 736.667,311.667 729,315C721.333,318.333 713,320 704,320L320,320C311,320 302.583,318.333 294.75,315C286.917,311.667 280.167,307.167 274.5,301.5C268.833,295.833 264.333,289.083 261,281.25C257.667,273.417 256,265 256,256L256,192C256,183 257.667,174.667 261,167C264.333,159.333 268.917,152.583 274.75,146.75C280.583,140.917 287.333,136.333 295,133C302.667,129.667 311,128 320,128ZM320,256L704,256L704,192L320,192Z" fill="context-fill" fill-opacity="context-fill-opacity">
  </path>
</svg>

<svg xmlns="http://www.w3.org/2000/svg" width="16" height="16" viewBox="128 0 768 1024"><path fill="context-fill" fill-opacity="context-fill-opacity" d="M192 896q0 13.5 5 25.25t13.5 20.25 20.25 13.5 25.25 5h608q13 0 22.5 9.5T896 992q0 13.005-9.5 22.5c-6.333 6.33-13.833 9.5-22.5 9.5H253.5c-16.667 0-32.583-3.42-47.75-10.25s-28.5-16-40-27.5q-17.25-17.25-27.5-40T128 898.5v-773q0-25 10.25-47.75t27.5-40 40-27.5T253.5 0h517q25 0 47.75 10.25t40 27.5 27.5 40T896 125.5V832q0 13.5-5 25t-13.75 20.25T857 891t-25 5Zm0-64h640V128q0-13-5-24.75t-13.75-20.5T792.75 69 768 64H256q-13.5 0-25 5t-20.25 13.75T197 103t-5 25Zm512-704q13 0 24.75 5t20.5 13.75 13.75 20.5 5 24.75v64q0 13.5-5 25t-13.75 20.25T729 315t-25 5H320q-13.5 0-25.25-5t-20.25-13.5-13.5-20.25-5-25.25v-64q0-13.5 5-25t13.75-20.25T295 133t25-5ZM320 256h384v-64H320Z"/></svg>
